!!!OTL: Leader Haughs and yarrow 
!!!id: HA027
**kern
*clefF4
*k[b-e-]
*F:
*M3/4
{4f
=1
8.a
16b-
4cc
4ee-
=2
8.dd
16cc
4.b-}
{16a
16g
=3
8.a
16b-
4cc
4c
=4
8d
4.c}
8r
{8cc
=5
8.a
16b-
4cc
4ee-
=6
8.dd
16cc
4.b-}
{8g
=7
8a
16b-
16cc
4.c
8f
=8
8d
8c}
4r
{4cc
=9
8.a
16g
4.f
8ff
=10
8.dd
16cc
4b-}
8r
{16a
16g
=11
8.a
16b-
4.cc
8cc
=12
8dd
8ee
4.ff}
{8b-
=13
8a
16g
16f
4f
8g
8a
=14
8b-
16cc
16dd
4.ee-}
{8cc
=15
16dd
16ee
8ff
4.cc
8f
=16
8d
4.c}
==
*-
!!!minrhy: 16
!!!meter: 3/4  
!!!cut: Leader Haughs and yarrow 
!!!key: HA027  16  F 3/4  
!!!bem: viele Vorschlge, auch doppelte
!! Haydn: Volksliedbearbeitungen, Bd1
